32x32/apps/agenda.svg

<svg height="32" width="32" xmlns="http://www.w3.org/2000/svg"><rect height="25" opacity=".2" rx="2.118" ry="2.083" width="24" x="4" y="6"/><rect fill="#f4f4f7" height="25" rx="2.118" ry="2.083" width="24" x="4" y="5"/><rect height="5" opacity=".1" rx="2" width="28" x="2" y="3"/><rect fill="#2ea881" height="5" rx="2" width="28" x="2" y="2"/><circle cx="8" cy="16" fill="#ff4f4f" r="3"/><path d="m12 15h13v2h-13z" fill="#ff4f4f"/><path d="m10 10h15v2h-15z" opacity=".3"/><circle cx="8" cy="17" opacity=".2" r="1"/><circle cx="8" cy="16" fill="#f4f4f7" r="1"/><path d="m7 10h2v2h-2zm3 10h15v2h-15zm-3 0h2v2h-2zm3 3h15v2h-15zm-3 0h2v2h-2zm3 3h15v2h-15zm-3 0h2v2h-2z" opacity=".3"/></svg>

<svg xmlns="http://www.w3.org/2000/svg" width="32" height="32"><rect style="opacity:.2" width="24" height="25" x="4" y="6" rx="2.118" ry="2.083"/><rect style="fill:#f4f4f7" width="24" height="25" x="4" y="5" rx="2.118" ry="2.083"/><rect style="opacity:.1" width="28" height="5" x="2" y="3" rx="2" ry="2"/><rect style="fill:#2ea881" width="28" height="5" x="2" y="2" rx="2" ry="2"/><circle style="fill:#ff4f4f" cx="8" cy="16" r="3"/><path style="fill:#ff4f4f" d="M12 15h13v2H12z"/><path style="opacity:.3" d="M10 10h15v2H10z"/><circle style="opacity:.2" cx="8" cy="17" r="1"/><circle style="fill:#f4f4f7" cx="8" cy="16" r="1"/><path style="opacity:.3" d="M7 10h2v2H7zM10 20h15v2H10zM7 20h2v2H7zM10 23h15v2H10zM7 23h2v2H7zM10 26h15v2H10zM7 26h2v2H7z"/></svg>
